img/favicon.svg

<svg fill="none" height="192" viewBox="0 0 192 192" width="192" xmlns="http://www.w3.org/2000/svg"><path d="m135.388 119.417 13.295-8.825 18.497 10.804c3.248 1.868 5.588 3.683 7.019 5.442 1.431 1.705 2.147 3.712 2.147 6.021 0 2.254-.716 4.26-2.147 6.02-1.431 1.704-3.771 3.491-7.019 5.36l-60.858 35.297c-1.981 1.155-3.799 2.007-5.45 2.557-1.6516.604-3.2756.907-4.872.907-1.5965 0-3.2205-.303-4.872-.907-1.5964-.55-3.4131-1.402-5.45-2.557l-60.858-35.297c-3.2481-1.869-5.5877-3.656-7.0189-5.36-1.4314-1.76-2.147-3.766-2.147-6.02 0-2.309.7156-4.316 2.147-6.021 1.4312-1.759 3.7708-3.574 7.0189-5.442l19.6529-11.381 14.1204 8.246-24.2772 13.773c-.3853.219-.5781.494-.5781.825 0 .275.1928.522.5781.741l58.3809 33.319c1.2661.659 2.3671.989 3.303.989.9909 0 2.1194-.33 3.3856-.989l58.3804-33.319c.385-.219.578-.466.578-.741 0-.331-.193-.606-.578-.825zm-1.568-37.1121 13.459-8.7418 19.901 11.6282c3.248 1.8693 5.588 3.6837 7.019 5.443 1.431 1.7044 2.147 3.7111 2.147 6.0203 0 2.3091-.716 4.3154-2.147 6.0204-1.431 1.704-3.771 3.519-7.019 5.443l-60.858 35.297c-1.981 1.099-3.799 1.951-5.45 2.557-1.6516.549-3.2756.824-4.872.824-1.5965 0-3.2205-.275-4.872-.824-1.5964-.606-3.4131-1.458-5.45-2.557l-60.858-35.297c-3.2481-1.924-5.5877-3.739-7.0189-5.443-1.4314-1.705-2.147-3.7113-2.147-6.0204 0-2.3092.7156-4.3159 2.147-6.0203 1.4312-1.7593 3.7708-3.5737 7.0189-5.443l21.5522-12.4529 13.6249 8.4944-25.681 14.5971c-.3853.2199-.5781.4948-.5781.8247 0 .2749.1928.5223.5781.7422l58.3809 33.3182c1.2661.659 2.3671.989 3.303.989.9909 0 2.1194-.33 3.3856-.989l58.3804-33.3182c.385-.2199.578-.4673.578-.7422 0-.3299-.193-.6048-.578-.8247zm-37.82 25.9781c-1.5965 0-3.2205-.275-4.872-.825-1.5964-.55-3.4131-1.402-5.45-2.556l-60.858-35.2974c-3.2481-1.9243-5.5877-3.7386-7.0189-5.4429-1.4314-1.7044-2.147-3.7112-2.147-6.0203 0-2.3642.7156-4.3984 2.147-6.1027 1.4312-1.7044 3.7708-3.5187 7.0189-5.4431l60.858-35.2968c2.0369-1.1546 3.8536-1.97926 5.45-2.4741 1.6515-.54976 3.2755-.8247 4.872-.8247 1.5964 0 3.2204.27494 4.872.8247 1.651.49484 3.469 1.3195 5.45 2.4741l60.858 35.2968c3.248 1.9244 5.588 3.7387 7.019 5.4431 1.431 1.7043 2.147 3.7385 2.147 6.1027 0 2.3091-.716 4.3159-2.147 6.0203-1.431 1.7043-3.771 3.5186-7.019 5.4429l-60.858 35.2974c-1.981 1.154-3.799 2.006-5.45 2.556-1.6516.55-3.2756.825-4.872.825zm0-15.0921c.9909 0 2.1194-.3574 3.3856-1.0721l58.3804-33.3176c.385-.165.578-.3849.578-.6598 0-.3299-.193-.5773-.578-.7422l-58.3804-33.3177c-1.2662-.7147-2.3947-1.0721-3.3856-1.0721-.9359 0-2.0369.3574-3.303 1.0721l-58.3809 33.3177c-.3853.1649-.5781.4123-.5781.7422 0 .2749.1928.4948.5781.6598l58.3809 33.3176c1.2661.7147 2.3671 1.0721 3.303 1.0721z" fill="#fff"/></svg>

<svg width="192" height="192" viewBox="0 0 192 192" fill="none" xmlns="http://www.w3.org/2000/svg">
<path d="M135.388 119.417L148.683 110.592L167.18 121.396C170.428 123.264 172.768 125.079 174.199 126.838C175.63 128.543 176.346 130.55 176.346 132.859C176.346 135.113 175.63 137.119 174.199 138.879C172.768 140.583 170.428 142.37 167.18 144.239L106.322 179.536C104.341 180.691 102.523 181.543 100.872 182.093C99.2204 182.697 97.5964 183 96 183C94.4035 183 92.7795 182.697 91.128 182.093C89.5316 181.543 87.7149 180.691 85.678 179.536L24.82 144.239C21.5719 142.37 19.2323 140.583 17.8011 138.879C16.3697 137.119 15.6541 135.113 15.6541 132.859C15.6541 130.55 16.3697 128.543 17.8011 126.838C19.2323 125.079 21.5719 123.264 24.82 121.396L44.4729 110.015L58.5933 118.261L34.3161 132.034C33.9308 132.253 33.738 132.528 33.738 132.859C33.738 133.134 33.9308 133.381 34.3161 133.6L92.697 166.919C93.9631 167.578 95.0641 167.908 96 167.908C96.9909 167.908 98.1194 167.578 99.3856 166.919L157.766 133.6C158.151 133.381 158.344 133.134 158.344 132.859C158.344 132.528 158.151 132.253 157.766 132.034L135.388 119.417ZM133.82 82.3049L147.279 73.5631L167.18 85.1913C170.428 87.0606 172.768 88.875 174.199 90.6343C175.63 92.3387 176.346 94.3454 176.346 96.6546C176.346 98.9637 175.63 100.97 174.199 102.675C172.768 104.379 170.428 106.194 167.18 108.118L106.322 143.415C104.341 144.514 102.523 145.366 100.872 145.972C99.2204 146.521 97.5964 146.796 96 146.796C94.4035 146.796 92.7795 146.521 91.128 145.972C89.5316 145.366 87.7149 144.514 85.678 143.415L24.82 108.118C21.5719 106.194 19.2323 104.379 17.8011 102.675C16.3697 100.97 15.6541 98.9637 15.6541 96.6546C15.6541 94.3454 16.3697 92.3387 17.8011 90.6343C19.2323 88.875 21.5719 87.0606 24.82 85.1913L46.3722 72.7384L59.9971 81.2328L34.3161 95.8299C33.9308 96.0498 33.738 96.3247 33.738 96.6546C33.738 96.9295 33.9308 97.1769 34.3161 97.3968L92.697 130.715C93.9631 131.374 95.0641 131.704 96 131.704C96.9909 131.704 98.1194 131.374 99.3856 130.715L157.766 97.3968C158.151 97.1769 158.344 96.9295 158.344 96.6546C158.344 96.3247 158.151 96.0498 157.766 95.8299L133.82 82.3049ZM96 108.283C94.4035 108.283 92.7795 108.008 91.128 107.458C89.5316 106.908 87.7149 106.056 85.678 104.902L24.82 69.6046C21.5719 67.6803 19.2323 65.866 17.8011 64.1617C16.3697 62.4573 15.6541 60.4505 15.6541 58.1414C15.6541 55.7772 16.3697 53.743 17.8011 52.0387C19.2323 50.3343 21.5719 48.52 24.82 46.5956L85.678 11.2988C87.7149 10.1442 89.5316 9.31954 91.128 8.8247C92.7795 8.27494 94.4035 8 96 8C97.5964 8 99.2204 8.27494 100.872 8.8247C102.523 9.31954 104.341 10.1442 106.322 11.2988L167.18 46.5956C170.428 48.52 172.768 50.3343 174.199 52.0387C175.63 53.743 176.346 55.7772 176.346 58.1414C176.346 60.4505 175.63 62.4573 174.199 64.1617C172.768 65.866 170.428 67.6803 167.18 69.6046L106.322 104.902C104.341 106.056 102.523 106.908 100.872 107.458C99.2204 108.008 97.5964 108.283 96 108.283ZM96 93.1909C96.9909 93.1909 98.1194 92.8335 99.3856 92.1188L157.766 58.8012C158.151 58.6362 158.344 58.4163 158.344 58.1414C158.344 57.8115 158.151 57.5641 157.766 57.3992L99.3856 24.0815C98.1194 23.3668 96.9909 23.0094 96 23.0094C95.0641 23.0094 93.9631 23.3668 92.697 24.0815L34.3161 57.3992C33.9308 57.5641 33.738 57.8115 33.738 58.1414C33.738 58.4163 33.9308 58.6362 34.3161 58.8012L92.697 92.1188C93.9631 92.8335 95.0641 93.1909 96 93.1909Z" fill="white" style="fill:white;fill-opacity:1;"/>
</svg>
